X:1
T:Joe Saylor 8's & 4's on "I Mean You" Cyrille Aimee
T:Joe Saylor 8's & 4's on "I Mean You" Cyrille Aimee
T:Thelonious Monk 
T:Transcription by George Prentice-Povey 
C:Thelonious Monk
%%score ( 1 2 )
L:1/8
Q:1/4=220
M:4/4
K:C
V:1 perc nm="Drumset" snm="D. Set"
K:none
I:percmap A A 41 normal
I:percmap F F 36 normal
I:percmap ^D D 44 x
I:percmap ^a a 49 x
I:percmap ^e e 46 x
I:percmap ^f f 51 x
I:percmap _d d 54 diamond
I:percmap c c 38 normal
I:percmap e e 47 normal
V:2 perc 
K:none
I:percmap F F 36 normal
I:percmap ^D D 44 x
I:percmap ^a a 49 x
I:percmap c c 38 normal
V:1
"^Swing""^\n\n" ^a6 ^fc | ^f2 ^f2 ^fec^a | z2 ^fc ^f2 [c^f]2 | z c ^f2 ^f2 ^f[c^f] | %4
 ^f2 ^f^f ^f2 ^f[c^f] | ^f2 ^f^f ^fc ^f2 | [c^f]2 ^f[c^f] ^f2 [F^f]^f | ^f2 ^f[c^f] ^fc^f[c^f] | %8
[Q:1/4=135]"^\n\n\n""^Metric Modulation \n(Orignal pulse becomes cotchet triplet of new pulse) \n" ^a2 ^f^f ^f2 ^f^f | %9
 ^f2 ^f^f ^f2 ^a2 | ^f2 ^f^f (3^fee ^fc |[M:2/4] (3^fcc ^fc | %12
[M:4/4][Q:1/4=220]"^\n\n\n" ^f2 A2 A2 A2 |[M:4/4] ^a2 ce z c z e |[M:3/4] z c ce ^f z | %15
[M:4/4] ^f2 ^f2 ^f2 ^fc | ^f2 ^f2 ^f2 ^f^f | ^f^f ^f2 ^f2 ^f2 | ^f2 ^f2 ^f2 ^f2 | %19
 ^f[c^f] [c^f]2 ^f2 ^fc | ^f2 ^f[c^f] ^f2 ^f2 | [c^f]2 z [c^f] ^f2 [c^f][c^f] | ^f2 ^fc ^fc^f[Ac] | %23
 [Ac][Ac] (3z [Ac] z (3[Ac][Ac] z [Ac][Ac] | [Ac]F[F^a][Ac] [Ac] z (3[Ac][Ac] z | %25
 [Ac][Ac] (3z [Ac] z (3[Ac][Ac] z [Ac]2 | (3[Ac][Ac]F (3[Ac][Ac]F [F^a]F [F^a]2 | %27
 z c z e (3ccc cF | (3ceA (3cFF (3ecc (3cce | (3ccc (3cec cec[F^a] | z c [F^a]c/c/ cc/c/ cF | %31
 ^f2 ^f2 ^f2 ^fc | ^f2 ^f^f ^f^f^f[c^a] | z2 ^fc ^f2 ^f2 | ^f[c^f] ^f2 ^f2 ^f[c^f] | %35
 ^f2 ^f[c^f] ^f2 ^f2 |"^Straight quavers" ccee cc c/c/c/c/ | ce/e/ e/e/e c/c/c/c/ ce/e/ | %38
 e/e/e _d/_d/_d/_d/ _d_d ^a2 | z2 ^f2 ^f2 ^fc | ^f2 ^f2 ^f[c^f][c^f]^a | z2 ^f[c^f] ^f2 [c^f]2 | %42
 ^f2 ^f[c^f] ^fc^f^f | c2 (3z Ae cF z e | z cce Ae c/e/A | Fc/e/ AF c/e/A F2 | z A z e cc c^a | %47
 z3 c z2 ^a2 | z2 ^f2 ^f^f^f[c^a] | ^f2 ^f[c^f] ^f2 ^f[c^f] | ^f2 ^fc ^fc^fc | c2 ^f2 F2 c2 | %52
 eee[F^a] z c ^fc/c/ | cF[F^a] z2{e} c (3z c z | ^a z z e cA z2 | z2 ^fc ^f2 ^f2 | %56
 ^f2 ^f[c^f] ^f2 ^f[c^f] | z2 [c^f]2 ^f2 ^f[c^f] | ^f2 ^f^f ^f2 ^f2 | c[F^f] z c [F^f]ee[^DF] | %60
 c2 [^DA]2 [c^e]2 [c^e]2 | ^a2 c2 ee e2 | ^a4 z4 | z8 |] %64
V:2
 F2 ^D2 z2 ^D2 | x2 ^D2 x2 ^DF | x2 ^D2 x2 ^D2 | x2 [^DF]2 x2 ^D2 | x2 ^D2 x2 ^D2 | %5
 x2 [^DF]2 x2 ^D2 | x2 ^D2 x2 ^D2 | z F ^D2 x2 ^D2 | F2 ^D2 x2 ^D2 | x2 ^D2 x2 [^DF]2 | %10
 x2 ^D2 x2 [^DF]2 |[M:2/4] ^D2 [^DF]2 |[M:4/4] F2 z4 z2 |[M:4/4] F2 z4 z2 |[M:3/4] x6 | %15
[M:4/4] x2 ^D2 x2 ^D2 | x2 ^D2 x2 ^D2 | x2 ^D2 x2 ^D2 | x2 ^D2 x2 ^D2 | x2 ^D2 x2 ^D2 | %20
 x2 ^D2 x2 ^D2 | x2 ^D2 x2 ^D2 | x2 [^DF]2 x2 [^DF] z | z8 | x5 F x2 | x8 | x8 | x8 | x8 | x8 | %30
 x6 ^D2 | F2 ^D2 x2 ^D2 | x2 ^D2 x2 ^D2 | x2 ^D2 x2 ^D2 | x2 ^D2 x2 ^D2 | x2 ^D2 z F [^DF]2 | z8 | %37
 x8 | x8 | x2 ^D2 x2 ^D2 | x2 ^D2 x2 ^DF | x2 ^D2 x2 ^D2 | z2 ^D2 z2 ^D2 | x8 | x8 | x8 | x7 F | %47
 x2 ^D2 x F [^DF]2 | x2 ^D2 x2 ^D2 | x2 ^D2 x2 ^D2 | x2 ^D2 x2 ^D2 | x2 ^D2 x4 | ^D2 x4 ^D2 | %53
 z4 ^D2 x2 | F z ^D2 x2 [^DF][F^a] | x2 ^D2 x2 [^DF]2 | x2 ^D2 x2 ^D2 | x2 ^D2 x2 ^D2 | %58
 x2 ^D2 x2 ^D2 | x8 | x8 | F2 x6 | F2 z2 ^Dc c2 | z2 [F^a]2 z4 |] %64

